X:68
T:J'ai peur du loup
T:Branle à Six
R:Branle à Six
O:France
A:Bresse
C:Trad.
S:Decitre
Z:Transcrit et/ou corrigé par Michel BELLON - 2007-05-25
Z:Pour toute observation mailto:galouvielle@free.fr
M:2/4
L:1/8
K:C
(c/d/) |: ez fz | d2 z{e}d | cB cd | e2 c(c/d/) |
w:j'ai_ peur du loup Ren-trons vi-te~en fa-mil-le J'ai_
ez fz | d2 zg | {a}gf ed |1 c2 z(c/d/) :|2 c3G |:
w:peur du loup Ga-lant près de ce bois J'ai_ bois J'ai
Z:Transcrit et/ou corrigé par Michel BELLON - 2007-05-25
Z:Pour toute observation mailto:galouvielle@free.fr
M:6/8
g2f e2g | g2f e2g | f2e f2g | (a3 g)z[P:Intro]g |
w:peur du loup j'ai peur du loup je ren-tre vers ma mè-re J'ai
g2f e2g | g2f e2g | a2f d2B | c3- czz :|
w:peur du loup, j'ai peur du loup, E-loi-gnons nous du bois.

%%footer $D   Galouvielle-MBe 2007 \n-- (--)
